src/icons/blockchains/dark/arbitrum.svg

<svg width="24" height="24" viewBox="0 0 24 24" fill="none" xmlns="http://www.w3.org/2000/svg">
  <rect width="24" height="24" rx="12" fill="#080530" />
  <mask
    id="mask0_1131_18507"
    style="mask-type: alpha"
    maskUnits="userSpaceOnUse"
    x="4"
    y="4"
    width="16"
    height="16"
  >
    <rect x="4" y="4" width="16" height="16" fill="#D9D9D9" />
  </mask>
  <g mask="url(#mask0_1131_18507)">
    <path
      d="M12.041 14.1775L14.0853 17.425L15.9738 16.3173L13.2889 12.0342L12.041 14.1775Z"
      fill="white"
    />
    <path
      d="M17.6944 15.0171L17.693 14.1295L14.7593 9.50488L13.6709 11.3741L16.503 16.0099L17.5269 15.4093C17.6274 15.3267 17.6881 15.2055 17.6945 15.0748L17.6944 15.0171Z"
      fill="white"
    />
    <path
      d="M5.40039 15.8527L6.8464 16.696L11.6584 8.88548L10.8417 8.86366C10.1459 8.85372 9.39629 9.0368 9.05226 9.6052L6.31969 13.8919L5.40039 15.3215V15.8527Z"
      fill="white"
    />
    <path
      d="M14.4351 8.88477L12.2827 8.89267L7.41309 17.0259L9.11517 18.0177L9.57805 17.2231L14.4351 8.88477Z"
      fill="white"
    />
    <path
      d="M18.6009 8.87439C18.583 8.4188 18.3393 8.00174 17.9575 7.75893L12.6065 4.64445C12.2289 4.452 11.7571 4.45175 11.3788 4.64432C11.3341 4.66716 6.17512 7.69537 6.17512 7.69537C6.10372 7.73003 6.03494 7.77131 5.97026 7.81818C5.62946 8.06538 5.42173 8.44955 5.40039 8.87158V15.3216L6.31969 13.892L6.31166 8.91518C6.31273 8.89698 6.31499 8.87906 6.31819 8.86139C6.33898 8.74429 6.40358 8.63984 6.50084 8.56924C6.5251 8.55166 11.7722 5.47765 11.7889 5.46922C11.9122 5.40653 12.0689 5.40579 12.1924 5.46727L17.4741 8.54214C17.5991 8.62269 17.6775 8.75925 17.6844 8.90854V15.0736C17.678 15.2043 17.6269 15.3254 17.5265 15.408L16.5025 16.0086L15.9741 16.3185L14.0857 17.4262L12.1706 18.5495C12.0674 18.5872 11.9468 18.5851 11.8445 18.543L9.5786 17.224L9.11573 18.0185L11.152 19.2051C11.2194 19.2439 11.2793 19.2782 11.3286 19.3062C11.4048 19.3495 11.4568 19.3784 11.4751 19.3874C11.6198 19.4586 11.8281 19.5 12.0157 19.5C12.1878 19.5 12.3555 19.468 12.5143 19.405L18.0769 16.1446C18.3963 15.8942 18.5841 15.5166 18.6009 15.1076V8.87439Z"
      fill="white"
    />
  </g>
</svg>

<svg
  xmlns="http://www.w3.org/2000/svg"
  width="24"
  height="24"
  fill="none"
  xmlns:v="https://vecta.io/nano"
>
  <rect width="24" height="24" rx="12" fill="#080530" />
  <mask id="A" maskUnits="userSpaceOnUse" x="4" y="4" width="16" height="16" mask-type="alpha">
    <path fill="#d9d9d9" d="M4 4h16v16H4z" />
  </mask>
  <g mask="url(#A)">
    <path
      d="M12.041 14.178l2.044 3.248 1.889-1.108-2.685-4.283-1.248 2.143zm5.653.839l-.001-.888-2.934-4.625-1.088 1.869 2.832 4.636 1.024-.601a.46.46 0 0 0 .168-.335v-.058zM5.4 15.853l1.446.843 4.812-7.811-.817-.022c-.696-.01-1.445.173-1.789.742L6.32 13.892l-.919 1.43v.531zm9.035-6.968l-2.152.008-4.87 8.133 1.702.992.463-.795 4.857-8.338z"
      fill="#fff"
    />
    <path
      d="M18.601 8.874a1.39 1.39 0 0 0-.643-1.115l-5.351-3.114a1.38 1.38 0 0 0-1.228 0c-.045.023-5.204 3.051-5.204 3.051a1.37 1.37 0 0 0-.205.123 1.38 1.38 0 0 0-.57 1.053v6.45l.919-1.43-.008-4.977a.45.45 0 0 1 .007-.054.46.46 0 0 1 .183-.292c.024-.018 5.271-3.092 5.288-3.1a.46.46 0 0 1 .403-.002l5.282 3.075a.46.46 0 0 1 .21.366v6.165c-.006.131-.058.252-.158.334l-1.024.601-.528.31-1.888 1.108-1.915 1.123a.46.46 0 0 1-.326-.006l-2.266-1.319-.463.794 2.036 1.187.177.101.146.081a1.31 1.31 0 0 0 .541.113c.172 0 .34-.032.499-.095l5.563-3.26a1.38 1.38 0 0 0 .524-1.037V8.874z"
      fill="#fff"
    />
  </g>
</svg>
